!!!OTL: Lazarus und der Prasser Der Lazarus leit auf dem Mist und schlief,
!!!ARE: Europa, Mitteleuropa, Lothringen, Gebenhausen
!!!SCT: D0024
!!!YEM: Copyright 1995, estate of Helmut Schaffrath.
**kern
*ICvox
*Ivox
*M2/4
*k[b-]
*F:
{8c
=1
8.f
16f
8f
8g
=2
4a
8cc
8b-
=3
4a
4g
=4
4.f}
{8f
=5
8.g
16g
8g
8g
=6
4g
8a
8b-
=7
4cc
8b-
8a
=8
4g
8r}
{8f
=9
4a
8a
8b-
=10
4.cc
8cc
=11
8b-
8a
8g
8f
=12
4b-
8r}
{8g
=13
4cc
8b-
8g
=14
8f
8cc
8b-
8g
=15
4a
8g
8c
=16
4f
8r}
==
!!!AGN: Legenden - Lied
!! Inzipit =  Variante
!!!ONB: ESAC (Essen Associative Code) Database: DVA
!!!AMT: simple duple
!!!AIN: vox
!!!EED: Helmut Schaffrath
!!!EEV: 1.0
*-
